images/search.svg

<svg xmlns="http://www.w3.org/2000/svg" width="24" height="24" viewBox="0 0 24 24"><path d="M16.871 3.312c-.282-.764-1.01-1.312-1.871-1.312-1.298 0-2.314 1.244-1.904 2.582 1.111-.395 2.346-1.102 3.775-1.27zm7.129 13.688c0 2.761-2.238 5-5 5-4.039 0-4.156-4.123-7-4.123-2.844 0-2.961 4.123-7 4.123-2.762 0-5-2.239-5-5 0-2.135 1.896-6.417 3.941-10.821 1.632-3.514 4.754-1.26 6.815-.585.781.256 1.654.272 2.486 0 2.061-.674 5.188-2.931 6.815.585 1.999 4.315 3.943 8.686 3.943 10.821zm-16 0c0-1.654-1.346-3-3-3s-3 1.346-3 3 1.346 3 3 3 3-1.346 3-3zm5-2c0-.552-.447-1-1-1-.553 0-1 .448-1 1s.447 1 1 1c.553 0 1-.448 1-1zm9 2c0-1.654-1.346-3-3-3s-3 1.346-3 3 1.346 3 3 3 3-1.346 3-3zm-13-15c-.861 0-1.589.548-1.871 1.312 1.429.168 2.664.875 3.775 1.27.409-1.338-.606-2.582-1.904-2.582z"/></svg>

<?xml version="1.0" encoding="utf-8"?>
<!-- Generator: Adobe Illustrator 24.0.3, SVG Export Plug-In . SVG Version: 6.00 Build 0)  -->
<svg version="1.1" id="Layer_1" xmlns="http://www.w3.org/2000/svg" xmlns:xlink="http://www.w3.org/1999/xlink" x="0px" y="0px"
	 viewBox="0 0 24 24" style="enable-background:new 0 0 24 24;" xml:space="preserve">
<style type="text/css">
	.st0{fill:#FFFFFF;}
</style>
<path class="st0" d="M16.9,3.3C16.6,2.5,15.9,2,15,2c-1.3,0-2.3,1.2-1.9,2.6C14.2,4.2,15.4,3.5,16.9,3.3z M24,17c0,2.8-2.2,5-5,5
	c-4,0-4.2-4.1-7-4.1S9,22,5,22c-2.8,0-5-2.2-5-5c0-2.1,1.9-6.4,3.9-10.8c1.6-3.5,4.8-1.3,6.8-0.6c0.8,0.3,1.7,0.3,2.5,0
	c2.1-0.7,5.2-2.9,6.8,0.6C22.1,10.5,24,14.9,24,17z M8,17c0-1.7-1.3-3-3-3s-3,1.3-3,3s1.3,3,3,3S8,18.7,8,17z M13,15
	c0-0.6-0.4-1-1-1s-1,0.4-1,1s0.4,1,1,1S13,15.6,13,15z M22,17c0-1.7-1.3-3-3-3s-3,1.3-3,3s1.3,3,3,3S22,18.7,22,17z M9,2
	C8.1,2,7.4,2.5,7.1,3.3c1.4,0.2,2.7,0.9,3.8,1.3C11.3,3.2,10.3,2,9,2z"/>
</svg>
